X: 25893
T: Matt Peoples'
R: reel
M: 4/4
K: Dmajor
FABc d2 BA|d2 BA FE E2|FABc dBBA|1 f2 fe dBBA:|2 f2 fe defg||
ad d2 adbd|adde feef|ad d2 a2 af|egfe dBBA|
ad d2 adbd|adde fe e2|faaf b2 af|egfe dBBA||

